X: 499
T: Bülbülün Göğsü Al Olur
C: Mehmet Toptan
O: Turkey
F: http://compmusic.upf.edu/node/140
N: hicaz-humayun--turku--sofyan--bulbulun_gogsu--urfa
N: makam= hicaz-humayun
N: form= turku
N: usul= sofyan = 4/4
M: 4/4
L: 1/16
K: C _7/8B ^c  
Q: 1/4=66
%%MIDI tuningsystem comma53
z2.d2 .d2.d2 d3/2c/de d4  | d3/2c/de c2B2 c4 edcB  | \
w:   |   | 
A2d2 d2d2 d3/2c/de c2B2  | 
w:   | 
c2Bc edcB A8  | z2.d2 .d2.d2 d3/2c/de d4  | \
w:   |   | 
d3/2c/de c2B2 c4 edcB  | 
w:   | 
A2d2 d2d2 d3/2c/de c2B2  | c2Bc edcB A8  | \
w:   |   | 
z2e2 e2e2 e4 e4  | 
w:  Bül bü lün  göğ sü   | 
fede d2{e}cd e2e^2/4f g{a}g{a}f{g}e  | \
w:  al  *  *  *  *  *  o *  lur    | 
{^2/4f}d2e2 e2e2 e4 e4  | fede d2{e}cd e2e^2/4f g{a}g{a}f{g}e  | 
w:  *  *  Bül bü lün  göğ sü   |  al  *  *  *  *  *  o *  lur    | 
{^2/4f}d2e3/2=f/ edd2 c{e}d{e}dc d2z2  | \
w:  *  *  Ger *  dan *  da  çif *  *  *  *  *  te   | 
d/e/d/c/de dcB2 c4 d2cB  | 
w:  hal  *  *  *  *  *  *  *  o lur  *  a  | 
A2e3/2f/ edd2 c{e}d{e}dc d2z2  | d/e/d/c/de dcB2 c4 d2cB  | 
w:  man   Ger *  dan *  da  çif *  *  *  *  *  te   |  hal  *  *  *  *  *  *  *  o lur  *  a  | 
A6ga bagf edcd  | e2e2 e2e2 e4 e4  | \
w:  man   SAZ  |  *  Bül bül  on bir  ay   | 
fede d2{e}cd e2e^2/4f g{a}g{a}f{g}e  | 
w:  lal  *  *  *  *  *  o *  lur    | 
{^2/4f}d2e2 e2e2 e4 e4  | fede d2{e}cd e2e^2/4f g{a}g{a}f{g}e  | \
w:  *  *  Bül bül  on bir  ay   |  lal  *  *  *  *  *  o *  lur    | 
{^2/4f}d2e3/2=f/ edd2 c{e}d{e}dc d2d2  | 
w:  *  *  Gül  *  a *  çıl mış  *  *  *  *  *  gül  | 
d/e/d/c/de dcB2 c4 d2cB  | A2e3/2f/ edd2 c{e}d{e}dc d2d2  | 
w:  fa *  *  *  *  *  *  *  ma  gel  gel_ a  |  man   Bu  *  mec *  li si  *  *  *  *  *  ir  | 
d/e/d/c/de dcB2 c4 d2cB  | A12 z4  | |


